X:1
T:Title
%%score { ( 1 4 ) | ( 2 3 ) }
L:1/8
M:4/4
K:F
V:1 treble nm="Grand Piano"
V:4 treble 
V:2 bass 
V:3 bass 
V:1
 z4 z2[Q:1/4=94] CC | F2 F>G F2 C>F | A2 A>_A =A2 F>A | [Ac]2 [_A=B]>[=Ac] [_Bd]2 [Ac]>A | %4
[M:9/8] F2 E- E/F/ [CEG]2- [CEG]CC |[M:4/4] F2 F>G F2 C>F | A2 A>_A =A2 z A | G2 E>G c2 d>e | %8
[M:7/8] d2 G>d [CEc]3 |[M:1/4] c2 |[M:4/4] e2 d2 [Ac]2 [GB]2 | A>_A =A>[GB] [Ac]2 [FA]2 | %12
 [Ec]2 [EB]2 [EG]2 [GB]2 |[M:2/4] [FA]2 [FA]>[GB] | [Ac]2 [G^c]2 | %15
[M:4/4] [^Fd]2 [DFA]2 [DGB]2 [DG=B]2 | [CGc]2 [CEG]2 [CFA]2 (3FED | C>A B>A G2 (3C-[CD][CE] | %18
[M:3/4] [B,EG]4 [A,F]2 |] %19
V:2
 z4 z2 C,2 | [F,A,C]2 [F,A,C]>[F,B,C] [F,A,C]2 [F,A,]>[F,A,C] | %2
 [F,CF]2 [F,CF]>[F,=B,F] [F,CF]2 [A,C]>[K:treble][CF] | %3
 [F,F]2 [F,F]>[F,F] [F,F]2[K:bass] [F,F]>[F,CF] | %4
[M:9/8] [G,=B,D]2 [G,B,D]- [G,B,D]/[G,B,D]/ C,2- C,C,[C,_B,] | %5
[M:4/4] [F,A,C]2 [F,A,C]>[F,B,C] [F,A,C]2 [F,A,]>[F,A,C] | %6
 [F,CF]2 [F,CF]>[F,=B,F] [F,CF]2 A,[K:treble]C | [G,CE]2 [G,C]>[G,CE] [G,E]2 [=B,F]>[CG] | %8
[M:7/8] [G,=B,F]2 [G,B,F]>[G,B,F][K:bass] C,3 |[M:1/4] C2 | %10
[M:4/4][K:treble] [CG]2 [CB]2[K:bass] [C,C]2 [E,C]2 | [F,CF]>[F,=B,F] [F,CF]>[F,F] [F,F]2 [F,C]2 | %12
 [C,C]2 [C,C]2 [C,C]2 [E,C]2 |[M:2/4] [F,C]2 [F,C]>[F,C] | [F,C]2 [E,A,]2 | %15
[M:4/4] [D,A,]2 D,2 G,2 F,2 | E,2 C,2 F,2 (3F,E,D, | C,>[C,F,C] [C,G,C]>[C,F,C] [C,E,C]2 (3E,F,G, | %18
[M:3/4] C,4 F,2 |] %19
V:3
 x8 | x8 | z4 z2 F,2[K:treble] | x6[K:bass] x2 |[M:9/8] x9 |[M:4/4] x8 | z4 z2 F,2[K:treble] | %7
 z4 z2 G,2 |[M:7/8] x4[K:bass] x3 |[M:1/4] x2 |[M:4/4][K:treble] x4[K:bass] x4 | x8 | x8 | %13
[M:2/4] x4 | x4 |[M:4/4] x8 | x8 | z4 z2 C,2 |[M:3/4] x6 |] %19
V:4
 x8 | x8 | x8 | x8 |[M:9/8] x9 |[M:4/4] x8 | z4 z2 F2 | x8 |[M:7/8] x7 |[M:1/4] x2 |[M:4/4] x8 | %11
 x8 | x8 |[M:2/4] x4 | x4 |[M:4/4] x8 | x8 | x8 |[M:3/4] x6 |] %19

